src/assets/img/icons/duotone-icons/Home/Home.svg

<?xml version="1.0" encoding="UTF-8"?>
<svg width="24px" height="24px" viewBox="0 0 24 24" version="1.1" xmlns="http://www.w3.org/2000/svg" xmlns:xlink="http://www.w3.org/1999/xlink">
    <!-- Generator: Sketch 52.2 (67145) - http://www.bohemiancoding.com/sketch -->
    <title>Stockholm-icons / Home / Home</title>
    <desc>Created with Sketch.</desc>
    <g id="Stockholm-icons-/-Home-/-Home" stroke="none" stroke-width="1" fill="none" fill-rule="evenodd">
        <rect id="bound" x="0" y="0" width="24" height="24"></rect>
        <path d="M3.95709826,8.41510662 L11.47855,3.81866389 C11.7986624,3.62303967 12.2013376,3.62303967 12.52145,3.81866389 L20.0429,8.41510557 C20.6374094,8.77841684 21,9.42493654 21,10.1216692 L21,19.0000642 C21,20.1046337 20.1045695,21.0000642 19,21.0000642 L4.99998155,21.0000673 C3.89541205,21.0000673 2.99998155,20.1046368 2.99998155,19.0000673 L2.99999828,10.1216672 C2.99999935,9.42493561 3.36258984,8.77841732 3.95709826,8.41510662 Z M10,13 C9.44771525,13 9,13.4477153 9,14 L9,17 C9,17.5522847 9.44771525,18 10,18 L14,18 C14.5522847,18 15,17.5522847 15,17 L15,14 C15,13.4477153 14.5522847,13 14,13 L10,13 Z" id="Combined-Shape" fill="#335EEA"></path>
    </g>
</svg>

<svg width="24" height="24" viewBox="0 0 24 24" xmlns="http://www.w3.org/2000/svg"><g fill="none" fill-rule="evenodd"><path d="M0 0h24v24H0z"/><path d="M3.957 8.415L11.48 3.82a1 1 0 011.042 0l7.522 4.596A2 2 0 0121 10.122V19a2 2 0 01-2 2H5a2 2 0 01-2-2v-8.878a2 2 0 01.957-1.707zM10 13a1 1 0 00-1 1v3a1 1 0 001 1h4a1 1 0 001-1v-3a1 1 0 00-1-1h-4z" fill="#335EEA"/></g></svg>
